X:1
T:Dark Haired Girl Dressed In Blue
M:2/4
L:1/8
K:D
|: FA Ad|B/c/d A>F|GB AF/A/|BE G/F/E/D/|FA Ad|B/c/d A>F|GB A/B/A/G/|FD D2 :|
|: FA A/B/d/e/|f>d ed|Bd AF/A/|BE G/F/E/D/|FA A/B/d/e/|f>d ed|Bd A/B/A/G/|FD D2 :|
